core/img/apps/richdocuments.svg

<svg width="32" height="32" version="1.0" viewBox="0 0 32 32" xmlns="http://www.w3.org/2000/svg"><path d="m4.6992 2.004c-0.395 0.0764-0.7062 0.4666-0.6992 0.875v26.244c0 0.46 0.4122 0.876 0.8632 0.876h22.276c0.452 0 0.864-0.416 0.864-0.876v-20.284c-8e-3 -0.1338-0.046-0.266-0.11-0.383l-6.624-6.3984c-0.086-0.0328-0.178-0.051-0.27-0.0546h-16.137c-0.0532-0.0053-0.11-0.0053-0.1636 0zm3.3008 3.996h12v2h-12v-2zm0 6h10v2h-10v-2zm0 6h16v2h-16v-2zm0 6h8v2h-8v-2z" color="#000000" style="block-progression:tb;text-indent:0;text-transform:none"/></svg>

<svg xmlns="http://www.w3.org/2000/svg" width="32" height="32" version="1.0"><path d="M4.7 2.004c-.396.076-.707.467-.7.875v26.244c0 .46.412.876.863.876H27.14c.452 0 .864-.416.864-.876V8.839a.916.916 0 0 0-.11-.383L21.27 2.058a.854.854 0 0 0-.27-.055H4.862a.844.844 0 0 0-.163 0zM8 6h12v2H8V6zm0 6h10v2H8v-2zm0 6h16v2H8v-2zm0 6h8v2H8v-2z" color="#000" style="block-progression:tb;text-indent:0;text-transform:none"/></svg>
